X: 1
T: Flickornas Dans p\aa Kyrkog\aarden
O: \"Oland
R: waltz
Z: 2021 John Chambers <jc:trillian.mit.edu>
S: http://www.folksweden.com/files/Flickornas_Dans_p__Kyrkog_rden.pdf
M: 3/4
L: 1/8
K: D
|: D2 |: F2 FA GE | E2 D2 DF |1,3 A2 Ad cB | B2 A2 DE :|2,4 A2 A2 Bc | d4 :|
|: AF |: D2 FD FA | d2 cB AF |1,3 G2 E2 e2 | A2 Bc d2 :|2,4 G2 E2 c2 | d4 :|
